packages/radix-icons/outline/15/dashboard.svg

<svg width="15" height="15" fill="none" xmlns="http://www.w3.org/2000/svg">
  <path
    fill-rule="evenodd"
    clip-rule="evenodd"
    d="M4.1 2H4.08073C3.81715 1.99999 3.58977 1.99998 3.40249 2.01529C3.20481 2.03144 3.0082 2.06709 2.81901 2.16349C2.53677 2.3073 2.3073 2.53677 2.16349 2.81901C2.06709 3.0082 2.03144 3.20481 2.01529 3.40249C1.99998 3.58977 1.99999 3.81715 2 4.08073V4.1V4.9V4.91927C1.99999 5.18285 1.99998 5.41023 2.01529 5.59751C2.03144 5.79519 2.06709 5.9918 2.16349 6.18099C2.3073 6.46323 2.53677 6.6927 2.81901 6.83651C3.0082 6.93291 3.20481 6.96857 3.40249 6.98472C3.58977 7.00002 3.81715 7.00001 4.08072 7H4.08074H4.1H4.9H4.91926H4.91928C5.18285 7.00001 5.41023 7.00002 5.59751 6.98472C5.79519 6.96857 5.9918 6.93291 6.18099 6.83651C6.46323 6.6927 6.6927 6.46323 6.83651 6.18099C6.93291 5.9918 6.96857 5.79519 6.98472 5.59751C7.00002 5.41023 7.00001 5.18285 7 4.91928V4.91926V4.9V4.1V4.08074V4.08072C7.00001 3.81715 7.00002 3.58977 6.98472 3.40249C6.96857 3.20481 6.93291 3.0082 6.83651 2.81901C6.6927 2.53677 6.46323 2.3073 6.18099 2.16349C5.9918 2.06709 5.79519 2.03144 5.59751 2.01529C5.41023 1.99998 5.18285 1.99999 4.91927 2H4.9H4.1ZM3.27301 3.0545C3.29773 3.0419 3.34809 3.02306 3.48392 3.01196C3.62559 3.00039 3.81172 3 4.1 3H4.9C5.18828 3 5.37441 3.00039 5.51608 3.01196C5.65191 3.02306 5.70227 3.0419 5.727 3.0545C5.82108 3.10243 5.89757 3.17892 5.9455 3.27301C5.9581 3.29773 5.97694 3.34809 5.98804 3.48392C5.99961 3.62559 6 3.81172 6 4.1V4.9C6 5.18828 5.99961 5.37441 5.98804 5.51608C5.97694 5.65191 5.9581 5.70227 5.9455 5.727C5.89757 5.82108 5.82108 5.89757 5.727 5.9455C5.70227 5.9581 5.65191 5.97694 5.51608 5.98804C5.37441 5.99961 5.18828 6 4.9 6H4.1C3.81172 6 3.62559 5.99961 3.48392 5.98804C3.34809 5.97694 3.29773 5.9581 3.27301 5.9455C3.17892 5.89757 3.10243 5.82108 3.0545 5.727C3.0419 5.70227 3.02306 5.65191 3.01196 5.51608C3.00039 5.37441 3 5.18828 3 4.9V4.1C3 3.81172 3.00039 3.62559 3.01196 3.48392C3.02306 3.34809 3.0419 3.29773 3.0545 3.27301C3.10243 3.17892 3.17892 3.10243 3.27301 3.0545ZM10.1 2H10.0807C9.81715 1.99999 9.58977 1.99998 9.40249 2.01529C9.20481 2.03144 9.0082 2.06709 8.81901 2.16349C8.53677 2.3073 8.3073 2.53677 8.16349 2.81901C8.06709 3.0082 8.03144 3.20481 8.01529 3.40249C7.99998 3.58977 7.99999 3.81715 8 4.08073L8 4.1V4.9L8 4.91927C7.99999 5.18285 7.99998 5.41023 8.01529 5.59751C8.03144 5.79519 8.06709 5.9918 8.16349 6.18099C8.3073 6.46323 8.53677 6.6927 8.81901 6.83651C9.0082 6.93291 9.20481 6.96857 9.40249 6.98472C9.58977 7.00002 9.81715 7.00001 10.0807 7H10.0807H10.1H10.9H10.9193H10.9193C11.1828 7.00001 11.4102 7.00002 11.5975 6.98472C11.7952 6.96857 11.9918 6.93291 12.181 6.83651C12.4632 6.6927 12.6927 6.46323 12.8365 6.18099C12.9329 5.9918 12.9686 5.79519 12.9847 5.59751C13 5.41023 13 5.18284 13 4.91926V4.9V4.1V4.08074C13 3.81716 13 3.58978 12.9847 3.40249C12.9686 3.20481 12.9329 3.0082 12.8365 2.81901C12.6927 2.53677 12.4632 2.3073 12.181 2.16349C11.9918 2.06709 11.7952 2.03144 11.5975 2.01529C11.4102 1.99998 11.1828 1.99999 10.9193 2H10.9H10.1ZM9.27301 3.0545C9.29773 3.0419 9.34809 3.02306 9.48392 3.01196C9.62559 3.00039 9.81172 3 10.1 3H10.9C11.1883 3 11.3744 3.00039 11.5161 3.01196C11.6519 3.02306 11.7023 3.0419 11.727 3.0545C11.8211 3.10243 11.8976 3.17892 11.9455 3.27301C11.9581 3.29773 11.9769 3.34809 11.988 3.48392C11.9996 3.62559 12 3.81172 12 4.1V4.9C12 5.18828 11.9996 5.37441 11.988 5.51608C11.9769 5.65191 11.9581 5.70227 11.9455 5.727C11.8976 5.82108 11.8211 5.89757 11.727 5.9455C11.7023 5.9581 11.6519 5.97694 11.5161 5.98804C11.3744 5.99961 11.1883 6 10.9 6H10.1C9.81172 6 9.62559 5.99961 9.48392 5.98804C9.34809 5.97694 9.29773 5.9581 9.27301 5.9455C9.17892 5.89757 9.10243 5.82108 9.0545 5.727C9.0419 5.70227 9.02306 5.65191 9.01196 5.51608C9.00039 5.37441 9 5.18828 9 4.9V4.1C9 3.81172 9.00039 3.62559 9.01196 3.48392C9.02306 3.34809 9.0419 3.29773 9.0545 3.27301C9.10243 3.17892 9.17892 3.10243 9.27301 3.0545ZM4.08073 8L4.1 8H4.9L4.91927 8C5.18285 7.99999 5.41023 7.99998 5.59751 8.01529C5.79519 8.03144 5.9918 8.06709 6.18099 8.16349C6.46323 8.3073 6.6927 8.53677 6.83651 8.81901C6.93291 9.0082 6.96857 9.20481 6.98472 9.40249C7.00002 9.58977 7.00001 9.81715 7 10.0807V10.0807V10.1V10.9V10.9193V10.9193C7.00001 11.1828 7.00002 11.4102 6.98472 11.5975C6.96857 11.7952 6.93291 11.9918 6.83651 12.181C6.6927 12.4632 6.46323 12.6927 6.18099 12.8365C5.9918 12.9329 5.79519 12.9686 5.59751 12.9847C5.41023 13 5.18284 13 4.91926 13H4.9H4.1H4.08074C3.81716 13 3.58977 13 3.40249 12.9847C3.20481 12.9686 3.0082 12.9329 2.81901 12.8365C2.53677 12.6927 2.3073 12.4632 2.16349 12.181C2.06709 11.9918 2.03144 11.7952 2.01529 11.5975C1.99998 11.4102 1.99999 11.1828 2 10.9193V10.9V10.1V10.0807C1.99999 9.81715 1.99998 9.58977 2.01529 9.40249C2.03144 9.20481 2.06709 9.0082 2.16349 8.81901C2.3073 8.53677 2.53677 8.3073 2.81901 8.16349C3.0082 8.06709 3.20481 8.03144 3.40249 8.01529C3.58977 7.99998 3.81715 7.99999 4.08073 8ZM3.48392 9.01196C3.34809 9.02306 3.29773 9.0419 3.27301 9.0545C3.17892 9.10243 3.10243 9.17892 3.0545 9.27301C3.0419 9.29773 3.02306 9.34809 3.01196 9.48392C3.00039 9.62559 3 9.81172 3 10.1V10.9C3 11.1883 3.00039 11.3744 3.01196 11.5161C3.02306 11.6519 3.0419 11.7023 3.0545 11.727C3.10243 11.8211 3.17892 11.8976 3.27301 11.9455C3.29773 11.9581 3.34809 11.9769 3.48392 11.988C3.62559 11.9996 3.81172 12 4.1 12H4.9C5.18828 12 5.37441 11.9996 5.51608 11.988C5.65191 11.9769 5.70227 11.9581 5.727 11.9455C5.82108 11.8976 5.89757 11.8211 5.9455 11.727C5.9581 11.7023 5.97694 11.6519 5.98804 11.5161C5.99961 11.3744 6 11.1883 6 10.9V10.1C6 9.81172 5.99961 9.62559 5.98804 9.48392C5.97694 9.34809 5.9581 9.29773 5.9455 9.27301C5.89757 9.17892 5.82108 9.10243 5.727 9.0545C5.70227 9.0419 5.65191 9.02306 5.51608 9.01196C5.37441 9.00039 5.18828 9 4.9 9H4.1C3.81172 9 3.62559 9.00039 3.48392 9.01196ZM10.1 8L10.0807 8C9.81715 7.99999 9.58977 7.99998 9.40249 8.01529C9.20481 8.03144 9.0082 8.06709 8.81901 8.16349C8.53677 8.3073 8.3073 8.53677 8.16349 8.81901C8.06709 9.0082 8.03144 9.20481 8.01529 9.40249C7.99998 9.58977 7.99999 9.81715 8 10.0807L8 10.1V10.9L8 10.9193C7.99999 11.1828 7.99998 11.4102 8.01529 11.5975C8.03144 11.7952 8.06709 11.9918 8.16349 12.181C8.3073 12.4632 8.53677 12.6927 8.81901 12.8365C9.0082 12.9329 9.20481 12.9686 9.40249 12.9847C9.58978 13 9.81716 13 10.0807 13H10.1H10.9H10.9193C11.1828 13 11.4102 13 11.5975 12.9847C11.7952 12.9686 11.9918 12.9329 12.181 12.8365C12.4632 12.6927 12.6927 12.4632 12.8365 12.181C12.9329 11.9918 12.9686 11.7952 12.9847 11.5975C13 11.4102 13 11.1828 13 10.9193V10.9V10.1V10.0807C13 9.81716 13 9.58978 12.9847 9.40249C12.9686 9.20481 12.9329 9.0082 12.8365 8.81901C12.6927 8.53677 12.4632 8.3073 12.181 8.16349C11.9918 8.06709 11.7952 8.03144 11.5975 8.01529C11.4102 7.99998 11.1828 7.99999 10.9193 8L10.9 8H10.1ZM9.27301 9.0545C9.29773 9.0419 9.34809 9.02306 9.48392 9.01196C9.62559 9.00039 9.81172 9 10.1 9H10.9C11.1883 9 11.3744 9.00039 11.5161 9.01196C11.6519 9.02306 11.7023 9.0419 11.727 9.0545C11.8211 9.10243 11.8976 9.17892 11.9455 9.27301C11.9581 9.29773 11.9769 9.34809 11.988 9.48392C11.9996 9.62559 12 9.81172 12 10.1V10.9C12 11.1883 11.9996 11.3744 11.988 11.5161C11.9769 11.6519 11.9581 11.7023 11.9455 11.727C11.8976 11.8211 11.8211 11.8976 11.727 11.9455C11.7023 11.9581 11.6519 11.9769 11.5161 11.988C11.3744 11.9996 11.1883 12 10.9 12H10.1C9.81172 12 9.62559 11.9996 9.48392 11.988C9.34809 11.9769 9.29773 11.9581 9.27301 11.9455C9.17892 11.8976 9.10243 11.8211 9.0545 11.727C9.0419 11.7023 9.02306 11.6519 9.01196 11.5161C9.00039 11.3744 9 11.1883 9 10.9V10.1C9 9.81172 9.00039 9.62559 9.01196 9.48392C9.02306 9.34809 9.0419 9.29773 9.0545 9.27301C9.10243 9.17892 9.17892 9.10243 9.27301 9.0545Z"
    fill="currentColor"
  />
</svg>

<svg width="15" height="15" fill="none" xmlns="http://www.w3.org/2000/svg">
  <path
    fill-rule="evenodd"
    clip-rule="evenodd"
    d="M4.1 2h-.02c-.263 0-.49 0-.678.015a1.527 1.527 0 00-.583.148 1.5 1.5 0 00-.656.656c-.096.19-.132.386-.148.583C2 3.59 2 3.817 2 4.081V4.92c0 .263 0 .49.015.678.016.197.052.394.148.583a1.5 1.5 0 00.656.656c.19.096.386.132.583.148C3.59 7 3.817 7 4.081 7H4.92c.263 0 .49 0 .678-.015.197-.016.394-.052.583-.148a1.5 1.5 0 00.656-.656c.096-.19.132-.386.148-.583C7 5.41 7 5.183 7 4.919V4.08c0-.263 0-.49-.015-.678a1.527 1.527 0 00-.148-.583 1.5 1.5 0 00-.656-.656 1.527 1.527 0 00-.583-.148C5.41 2 5.183 2 4.919 2H4.1zm-.827 1.054a.57.57 0 01.21-.042C3.627 3 3.813 3 4.1 3h.8c.288 0 .474 0 .616.012a.57.57 0 01.211.042.5.5 0 01.218.219.57.57 0 01.043.21C6 3.627 6 3.813 6 4.1v.8c0 .288 0 .474-.012.616a.57.57 0 01-.043.211.5.5 0 01-.218.218.57.57 0 01-.21.043A8.505 8.505 0 014.9 6h-.8c-.288 0-.474 0-.616-.012a.57.57 0 01-.211-.043.5.5 0 01-.219-.218.57.57 0 01-.042-.21A8.505 8.505 0 013 4.9v-.8c0-.288 0-.474.012-.616a.57.57 0 01.042-.211.5.5 0 01.219-.219zM10.1 2h-.02c-.263 0-.49 0-.678.015a1.527 1.527 0 00-.583.148 1.5 1.5 0 00-.656.656c-.096.19-.132.386-.148.583C8 3.59 8 3.817 8 4.081V4.92c0 .263 0 .49.015.678.016.197.052.394.148.583a1.5 1.5 0 00.656.656c.19.096.386.132.583.148.188.015.415.015.679.015H10.92c.263 0 .49 0 .678-.015.197-.016.394-.052.583-.148a1.5 1.5 0 00.655-.656c.097-.19.133-.386.149-.583C13 5.41 13 5.183 13 4.919V4.08c0-.263 0-.49-.015-.678a1.526 1.526 0 00-.149-.583 1.5 1.5 0 00-.655-.656 1.527 1.527 0 00-.583-.148C11.41 2 11.183 2 10.918 2H10.1zm-.827 1.054a.57.57 0 01.21-.042C9.627 3 9.813 3 10.1 3h.8c.288 0 .474 0 .616.012a.57.57 0 01.211.042.5.5 0 01.218.219.57.57 0 01.043.21c.012.143.012.329.012.617v.8c0 .288 0 .474-.012.616a.57.57 0 01-.043.211.5.5 0 01-.218.218.57.57 0 01-.21.043A8.506 8.506 0 0110.9 6h-.8c-.288 0-.474 0-.616-.012a.57.57 0 01-.211-.043.5.5 0 01-.218-.218.57.57 0 01-.043-.21A8.505 8.505 0 019 4.9v-.8c0-.288 0-.474.012-.616a.57.57 0 01.043-.211.5.5 0 01.218-.219zM4.081 8H4.92c.263 0 .49 0 .678.015.197.016.394.052.583.148a1.5 1.5 0 01.656.656c.096.19.132.386.148.583.015.188.015.415.015.679V10.92c0 .263 0 .49-.015.678a1.527 1.527 0 01-.148.583 1.5 1.5 0 01-.656.655c-.19.097-.386.133-.583.149C5.41 13 5.183 13 4.919 13H4.08c-.263 0-.49 0-.678-.015a1.526 1.526 0 01-.583-.149 1.5 1.5 0 01-.656-.655 1.527 1.527 0 01-.148-.583C2 11.41 2 11.183 2 10.918V10.08c0-.263 0-.49.015-.678.016-.197.052-.394.148-.583a1.5 1.5 0 01.656-.656c.19-.096.386-.132.583-.148C3.59 8 3.817 8 4.081 8zm-.597 1.012a.57.57 0 00-.211.043.5.5 0 00-.219.218.57.57 0 00-.042.21A8.505 8.505 0 003 10.1v.8c0 .288 0 .474.012.616a.57.57 0 00.042.211.5.5 0 00.219.218.57.57 0 00.21.043c.143.012.329.012.617.012h.8c.288 0 .474 0 .616-.012a.57.57 0 00.211-.043.5.5 0 00.218-.218.57.57 0 00.043-.21C6 11.373 6 11.187 6 10.9v-.8c0-.288 0-.474-.012-.616a.57.57 0 00-.043-.211.5.5 0 00-.218-.218.57.57 0 00-.21-.043A8.505 8.505 0 004.9 9h-.8c-.288 0-.474 0-.616.012zM10.1 8h-.02c-.263 0-.49 0-.678.015a1.527 1.527 0 00-.583.148 1.5 1.5 0 00-.656.656c-.096.19-.132.386-.148.583C8 9.59 8 9.817 8 10.081V10.92c0 .263 0 .49.015.678.016.197.052.394.148.583a1.5 1.5 0 00.656.655c.19.097.386.133.583.149.188.015.415.015.679.015H10.92c.263 0 .49 0 .678-.015.197-.016.394-.052.583-.149a1.5 1.5 0 00.655-.655c.097-.19.133-.386.149-.583.015-.188.015-.415.015-.679V10.08c0-.263 0-.49-.015-.678a1.526 1.526 0 00-.149-.583 1.5 1.5 0 00-.655-.656 1.527 1.527 0 00-.583-.148C11.41 8 11.183 8 10.918 8H10.1zm-.827 1.055a.57.57 0 01.21-.043C9.627 9 9.813 9 10.1 9h.8c.288 0 .474 0 .616.012a.57.57 0 01.211.043.5.5 0 01.218.218.57.57 0 01.043.21c.012.143.012.329.012.617v.8c0 .288 0 .474-.012.616a.57.57 0 01-.043.211.5.5 0 01-.218.218.57.57 0 01-.21.043A8.483 8.483 0 0110.9 12h-.8c-.288 0-.474 0-.616-.012a.57.57 0 01-.211-.043.5.5 0 01-.218-.218.57.57 0 01-.043-.21A8.506 8.506 0 019 10.9v-.8c0-.288 0-.474.012-.616a.57.57 0 01.043-.211.5.5 0 01.218-.218z"
    fill="currentColor"
  />
</svg>
